svg/aws-waf.svg

<?xml version="1.0" encoding="UTF-8"?>
<svg xmlns="http://www.w3.org/2000/svg" xmlns:xlink="http://www.w3.org/1999/xlink" width="32" height="32" viewBox="0 0 32 32">
<defs>
<linearGradient id="linear-pattern-0" gradientUnits="userSpaceOnUse" x1="0" y1="1" x2="1" y2="0" gradientTransform="matrix(32, 0, 0, 32, 0, 0)">
<stop offset="0" stop-color="rgb(74.117649%, 3.137255%, 8.627451%)" stop-opacity="1"/>
<stop offset="1" stop-color="rgb(100%, 32.156864%, 32.156864%)" stop-opacity="1"/>
</linearGradient>
</defs>
<rect x="-3.2" y="-3.2" width="38.4" height="38.4" fill="url(#linear-pattern-0)"/>
<path fill-rule="evenodd" fill="rgb(100%, 100%, 100%)" fill-opacity="1" d="M 13.464844 20.199219 C 13.90625 20.507812 14.417969 20.789062 14.984375 21.042969 C 14.746094 19.855469 14.585938 17.800781 15.65625 15.835938 C 16.453125 14.371094 16.582031 12.707031 16 11.496094 C 15.785156 11.035156 15.453125 10.640625 15.039062 10.347656 C 15.417969 11.226562 15.632812 12.5 15.058594 14.136719 C 14.992188 14.324219 14.824219 14.453125 14.625 14.46875 C 14.429688 14.480469 14.242188 14.378906 14.144531 14.207031 C 13.980469 13.898438 13.523438 13.203125 13.003906 12.789062 C 13.207031 13.726562 13.335938 15.132812 12.667969 16.183594 C 12.632812 16.238281 12.597656 16.296875 12.566406 16.351562 C 11.832031 17.644531 12.226562 19.335938 13.464844 20.199219 M 17.234375 12.078125 C 17.519531 13.402344 17.28125 14.941406 16.535156 16.3125 C 15.453125 18.304688 15.851562 20.472656 16.082031 21.324219 C 17.058594 21.160156 19.53125 20.546875 20.058594 18.5 C 20.566406 16.539062 20.261719 15.402344 19.90625 14.789062 C 19.550781 16.0625 18.902344 16.597656 18.867188 16.625 C 18.703125 16.75 18.484375 16.765625 18.304688 16.664062 C 18.125 16.5625 18.027344 16.359375 18.058594 16.15625 C 18.363281 14.269531 17.878906 12.960938 17.234375 12.078125 M 11.824219 15.644531 C 12.628906 14.382812 11.789062 12.164062 11.78125 12.140625 C 11.71875 11.988281 11.734375 11.8125 11.828125 11.675781 C 11.921875 11.539062 12.078125 11.457031 12.246094 11.460938 C 13.121094 11.460938 13.871094 12.136719 14.371094 12.757812 C 14.636719 10.761719 13.433594 9.714844 13.371094 9.664062 C 13.195312 9.519531 13.144531 9.273438 13.242188 9.070312 C 13.335938 8.863281 13.558594 8.746094 13.78125 8.789062 C 14.515625 8.917969 15.167969 9.199219 15.707031 9.605469 C 16.183594 9.816406 18.566406 11.023438 19.0625 13.953125 C 19.078125 13.867188 19.085938 13.773438 19.097656 13.679688 C 19.117188 13.515625 19.214844 13.367188 19.363281 13.292969 C 19.511719 13.214844 19.6875 13.214844 19.835938 13.292969 C 19.929688 13.34375 22.101562 14.589844 21.027344 18.75 C 20.191406 21.996094 15.9375 22.363281 15.757812 22.378906 L 15.757812 22.375 C 15.746094 22.375 15.734375 22.378906 15.726562 22.378906 C 15.667969 22.378906 15.613281 22.371094 15.558594 22.351562 C 14.53125 21.984375 13.632812 21.535156 12.890625 21.019531 C 11.234375 19.863281 10.710938 17.59375 11.699219 15.855469 C 11.738281 15.785156 11.78125 15.714844 11.824219 15.644531 M 7.742188 21.976562 L 8.554688 21.386719 C 7.519531 19.960938 6.921875 18.261719 6.832031 16.5 L 8 16.5 L 8 15.5 L 6.839844 15.5 C 6.929688 13.746094 7.523438 12.058594 8.554688 10.640625 L 7.746094 10.054688 C 6.59375 11.644531 5.929688 13.539062 5.839844 15.5 L 5 15.5 L 5 16.5 L 5.835938 16.5 C 5.921875 18.472656 6.585938 20.378906 7.746094 21.976562 M 21.375 23.460938 C 19.949219 24.492188 18.257812 25.085938 16.5 25.175781 L 16.5 24 L 15.5 24 L 15.5 25.175781 C 13.742188 25.085938 12.050781 24.492188 10.625 23.460938 L 10.039062 24.269531 C 11.632812 25.425781 13.53125 26.085938 15.5 26.175781 L 15.5 27 L 16.5 27 L 16.5 26.175781 C 18.464844 26.085938 20.363281 25.421875 21.960938 24.269531 Z M 10.625 8.570312 C 12.050781 7.539062 13.742188 6.941406 15.5 6.855469 L 15.5 8 L 16.5 8 L 16.5 6.855469 C 18.257812 6.941406 19.949219 7.539062 21.375 8.570312 L 21.960938 7.761719 C 20.367188 6.605469 18.46875 5.941406 16.5 5.855469 L 16.5 5 L 15.5 5 L 15.5 5.855469 C 13.53125 5.941406 11.632812 6.605469 10.039062 7.761719 Z M 26.160156 15.5 C 26.070312 13.539062 25.40625 11.644531 24.253906 10.054688 L 23.445312 10.640625 C 24.472656 12.0625 25.066406 13.75 25.160156 15.5 L 24 15.5 L 24 16.5 L 25.160156 16.5 C 25.074219 18.261719 24.480469 19.960938 23.445312 21.386719 L 24.253906 21.976562 C 25.410156 20.375 26.074219 18.472656 26.160156 16.5 L 27 16.5 L 27 15.5 Z M 22.511719 10.207031 L 25.59375 7.128906 L 24.886719 6.421875 L 21.804688 9.5 Z M 9.484375 21.820312 L 6.40625 24.902344 L 7.113281 25.609375 L 10.191406 22.527344 Z M 11.207031 10.5 L 5.792969 5.085938 L 5.085938 5.792969 L 10.5 11.207031 Z M 21.5 20.792969 L 26.914062 26.207031 L 26.207031 26.914062 L 20.792969 21.5 Z M 21.5 20.792969 "/>
</svg>

<svg role="img" viewBox="0 0 32 32" xmlns="http://www.w3.org/2000/svg"><defs><linearGradient gradientTransform="scale(32)" gradientUnits="userSpaceOnUse" id="aws-waf_svg__a" x1="0" x2="1" y1="1" y2="0"><stop offset="0" stop-color="rgb(74.117649%, 3.137255%, 8.627451%)"/><stop offset="1" stop-color="rgb(100%, 32.156864%, 32.156864%)"/></linearGradient></defs><path d="M-3.2-3.2h38.4v38.4H-3.2z" fill="url(#aws-waf_svg__a)"/><path d="M13.465 20.2c.441.308.953.59 1.52.843-.239-1.188-.4-3.242.671-5.207.797-1.465.926-3.129.344-4.34a2.9 2.9 0 0 0-.96-1.148c.378.879.593 2.152.019 3.789a.5.5 0 0 1-.434.332.52.52 0 0 1-.48-.262c-.165-.309-.622-1.004-1.141-1.418.203.938.332 2.344-.336 3.395-.035.054-.07.113-.102.168-.734 1.293-.34 2.984.899 3.847m3.77-8.12c.285 1.323.046 2.862-.7 4.233-1.082 1.993-.683 4.16-.453 5.012.977-.164 3.45-.777 3.977-2.824.507-1.96.203-3.098-.153-3.71-.355 1.273-1.004 1.808-1.039 1.835a.51.51 0 0 1-.562.04.5.5 0 0 1-.246-.509c.304-1.886-.18-3.195-.825-4.078m-5.41 3.567c.805-1.262-.035-3.48-.043-3.504a.493.493 0 0 1 .465-.68c.875 0 1.625.676 2.125 1.297.266-1.996-.937-3.043-1-3.094a.49.49 0 0 1-.129-.594.49.49 0 0 1 .54-.28c.734.128 1.386.41 1.925.815.477.211 2.86 1.418 3.355 4.348.016-.086.024-.18.036-.273a.506.506 0 0 1 .738-.387c.094.05 2.266 1.297 1.191 5.457-.836 3.246-5.09 3.613-5.27 3.629v-.004c-.01 0-.023.004-.03.004a.5.5 0 0 1-.168-.027c-1.028-.368-1.926-.817-2.668-1.332-1.657-1.157-2.18-3.426-1.192-5.165q.06-.105.125-.21m-4.082 6.332.813-.59A9.1 9.1 0 0 1 6.832 16.5H8v-1H6.84a9.04 9.04 0 0 1 1.715-4.86l-.809-.585A10.07 10.07 0 0 0 5.84 15.5H5v1h.836a10.07 10.07 0 0 0 1.91 5.477m13.629 1.484a9.1 9.1 0 0 1-4.875 1.715V24h-1v1.176a9.1 9.1 0 0 1-4.875-1.715l-.586.809a10.1 10.1 0 0 0 5.461 1.906V27h1v-.824a10.13 10.13 0 0 0 5.46-1.906ZM10.625 8.57A9.07 9.07 0 0 1 15.5 6.854V8h1V6.855a9.07 9.07 0 0 1 4.875 1.715l.586-.808A10.05 10.05 0 0 0 16.5 5.855V5h-1v.855c-1.969.086-3.867.75-5.46 1.907ZM26.16 15.5a10.07 10.07 0 0 0-1.906-5.445l-.809.586A9.13 9.13 0 0 1 25.16 15.5H24v1h1.16a9.07 9.07 0 0 1-1.715 4.887l.809.59A10.1 10.1 0 0 0 26.16 16.5H27v-1Zm-3.648-5.293 3.082-3.078-.707-.707L21.805 9.5ZM9.484 21.82l-3.078 3.082.707.707 3.078-3.082Zm1.723-11.32L5.793 5.086l-.707.707 5.414 5.414ZM21.5 20.793l5.414 5.414-.707.707-5.414-5.414Zm0 0" fill="rgb(100%, 100%, 100%)" fill-rule="evenodd"/></svg>
